svg/fluentui-system-icons/ic_fluent_star_prohibited_20_regular.svg

<svg width="20" height="20" viewBox="0 0 20 20" fill="none" xmlns="http://www.w3.org/2000/svg">
<path d="M9.10433 2.89923C9.47114 2.15598 10.531 2.15599 10.8978 2.89923L12.8282 6.81073L17.1448 7.43797C17.9651 7.55715 18.2926 8.56513 17.699 9.14366L17.1502 9.67863C16.8358 9.50555 16.5026 9.36234 16.1544 9.25281L17.001 8.42757L12.6844 7.80034C12.3587 7.75301 12.0772 7.54844 11.9315 7.25329L10.0011 3.3418L8.07062 7.25329C7.92496 7.54844 7.6434 7.75301 7.31769 7.80034L3.00109 8.42757L6.12461 11.4722C6.3603 11.702 6.46784 12.033 6.41221 12.3574L5.67484 16.6565L9.01625 14.8999C9.04183 15.2562 9.10136 15.6031 9.19162 15.9374L6.14018 17.5417C5.40655 17.9274 4.54913 17.3044 4.68924 16.4875L5.4266 12.1883L2.30308 9.14366C1.70956 8.56512 2.03708 7.55715 2.8573 7.43797L7.17389 6.81073L9.10433 2.89923ZM10.002 14.5002C10.002 16.9855 12.0167 19.0002 14.502 19.0002C16.9872 19.0002 19.002 16.9855 19.002 14.5002C19.002 12.015 16.9872 10.0002 14.502 10.0002C12.0167 10.0002 10.002 12.015 10.002 14.5002ZM11.002 14.5002C11.002 12.5672 12.569 11.0002 14.502 11.0002C15.2881 11.0002 16.0137 11.2594 16.598 11.6971L11.6988 16.5963C11.2612 16.012 11.002 15.2864 11.002 14.5002ZM14.502 18.0002C13.7158 18.0002 12.9902 17.741 12.4059 17.3034L17.3051 12.4042C17.7428 12.9884 18.002 13.7141 18.002 14.5002C18.002 16.4332 16.4349 18.0002 14.502 18.0002Z" fill="#212121"/>
</svg>

<svg xmlns="http://www.w3.org/2000/svg" width="20" height="20"><path d="M9.104 2.9a1 1 0 0 1 1.794 0l1.93 3.91 4.317.628a1 1 0 0 1 .554 1.706l-.549.535a5.465 5.465 0 0 0-.996-.426l.847-.825-4.317-.628a1 1 0 0 1-.752-.547l-1.93-3.911L8.07 7.253a1 1 0 0 1-.753.547L3 8.428l3.124 3.044a1 1 0 0 1 .287.885l-.737 4.3L9.016 14.9c.026.356.085.703.176 1.037L6.14 17.542a1 1 0 0 1-1.45-1.055l.737-4.299-3.124-3.044a1 1 0 0 1 .554-1.706l4.317-.627 1.93-3.912Zm.898 11.6a4.5 4.5 0 1 0 9 0 4.5 4.5 0 0 0-9 0Zm1 0a3.5 3.5 0 0 1 5.596-2.803l-4.9 4.9a3.484 3.484 0 0 1-.696-2.097Zm3.5 3.5a3.482 3.482 0 0 1-2.096-.697l4.9-4.899A3.5 3.5 0 0 1 14.502 18Z"/></svg>
